src/Pure-Dark/16/symbolic/status/screen-shared-symbolic.svg

<svg width="16" height="16" version="1.1" xmlns="http://www.w3.org/2000/svg">
 <path d="m3 1c-1.662 0-3 1.338-3 3v7c0 1.662 1.338 3 3 3h10c1.662 0 3-1.338 3-3v-7c0-1.662-1.338-3-3-3h-10zm0 1h10c1.108 0 2 0.892 2 2v7c0 1.108-0.892 2-2 2h-10c-1.108 0-2-0.892-2-2v-7c0-1.108 0.892-2 2-2z" fill="#f2f2f2" stroke-linecap="round" stroke-linejoin="round" stroke-width="1.0016"/>
 <rect x="4" y="15" width="8" height="1" rx=".5" ry=".5" fill="#f2f2f2" stroke-linecap="round" stroke-linejoin="round" stroke-width="1.0016"/>
 <path d="m8 3 4 4-4 4v-3c-2.875-0.125-4 3-4 3 0-2.344 0.969-5 4-5z" color="#bebebe" fill="#f2f2f2" overflow="visible"/>
</svg>

<?xml version="1.0" encoding="UTF-8" standalone="no"?>
<svg
   width="16"
   height="16"
   version="1.1"
   id="svg2"
   sodipodi:docname="screen-shared-symbolic.svg"
   inkscape:version="1.4.2 (ebf0e940d0, 2025-05-08)"
   xmlns:inkscape="http://www.inkscape.org/namespaces/inkscape"
   xmlns:sodipodi="http://sodipodi.sourceforge.net/DTD/sodipodi-0.dtd"
   xmlns="http://www.w3.org/2000/svg"
   xmlns:svg="http://www.w3.org/2000/svg">
  <defs
     id="defs2">
     <style
        id="current-color-scheme"
        type="text/css">
        .ColorScheme-Text { color:#f2f2f2; }
        .ColorScheme-NeutralText { color:#f67400; }
        .ColorScheme-PositiveText { color:#37c837; }
        .ColorScheme-NegativeText { color:#f44336; }
        .ColorScheme-Highlight { color:#3daee9; }
     </style>
  </defs>
  <sodipodi:namedview
     id="namedview2"
     pagecolor="#ffffff"
     bordercolor="#000000"
     borderopacity="0.25"
     inkscape:showpageshadow="2"
     inkscape:pageopacity="0.0"
     inkscape:pagecheckerboard="0"
     inkscape:deskcolor="#d1d1d1"
     inkscape:zoom="49.6875"
     inkscape:cx="8"
     inkscape:cy="8"
     inkscape:window-width="1920"
     inkscape:window-height="1010"
     inkscape:window-x="0"
     inkscape:window-y="0"
     inkscape:window-maximized="1"
     inkscape:current-layer="svg2" />
  <path
     id="path1"
     style="fill:currentColor"
     class="ColorScheme-Text"
     d="M 3 1 C 1.338 1 0 2.338 0 4 L 0 11 C 0 12.662 1.338 14 3 14 L 13 14 C 14.662 14 16 12.662 16 11 L 16 4 C 16 2.338 14.662 1 13 1 L 3 1 z M 3 2 L 13 2 C 14.108 2 15 2.892 15 4 L 15 11 C 15 12.108 14.108 13 13 13 L 3 13 C 1.892 13 1 12.108 1 11 L 1 4 C 1 2.892 1.892 2 3 2 z M 4.5 15 C 4.223 15 4 15.223 4 15.5 C 4 15.777 4.223 16 4.5 16 L 11.5 16 C 11.777 16 12 15.777 12 15.5 C 12 15.223 11.777 15 11.5 15 L 4.5 15 z " />
  <path
     id="path2"
     style="fill:currentColor"
     class="ColorScheme-Text"
     d="M 8 3 L 8 6 C 4.969 6 4 8.656 4 11 C 4 11 5.125 7.875 8 8 L 8 11 L 12 7 L 8 3 z " />
</svg>
